src/components/00-materials/images-raw/Family G.svg

<svg width="96" height="96" viewBox="0 0 96 96" fill="none" xmlns="http://www.w3.org/2000/svg">
<path d="M37 27C35.9652 27.0397 34.9413 26.7771 34.0534 26.2444C33.1654 25.7116 32.4519 24.9317 32 24C30.66 26.75 29.07 29 25 29H21V35C21 39.67 23.81 44 29 44C34.19 44 37 39.67 37 35V27Z" stroke="#00008F" stroke-width="2" stroke-linecap="round" stroke-linejoin="round"/>
<path d="M37 37C37 37 42 35 42 28V26C42 23 42 19 38 19C36.13 15.88 34 14 29 14H28C24.8303 14.0414 21.8021 15.319 19.5605 17.5605C17.319 19.8021 16.0414 22.8303 16 26V28C16 35 21 37 21 37M23 41.27V46L17.38 46.61C15.1335 46.8495 13.0489 47.8917 11.5094 49.5452C9.96985 51.1986 9.0788 53.3522 9 55.61V58.93C9.02342 59.6144 9.28663 60.2688 9.74361 60.7788C10.2006 61.2887 10.8223 61.6219 11.5 61.72L19.7 63.17C24.5279 64.0274 29.4513 64.2125 34.33 63.72M35 41.18V46L38.63 46.4M17 58V62.7" stroke="#00008F" stroke-width="2" stroke-linecap="round" stroke-linejoin="round"/>
<path d="M23 46L27.29 53.14C27.4683 53.4339 27.7193 53.6769 28.0188 53.8455C28.3183 54.0142 28.6563 54.1027 29 54.1027C29.3437 54.1027 29.6817 54.0142 29.9812 53.8455C30.2807 53.6769 30.5317 53.4339 30.71 53.14L35 46M75 27C73.9652 27.0397 72.9413 26.7771 72.0534 26.2444C71.1654 25.7116 70.4519 24.9317 70 24C68.66 26.75 67.07 29 63 29H59V35C59 39.67 61.81 44 67 44C72.19 44 75 39.67 75 35V27Z" stroke="#00008F" stroke-width="2" stroke-linecap="round" stroke-linejoin="round"/>
<path d="M75 37C75 37 80 35 80 28V26C80 23 80 19 76 19C74.13 15.88 72 14 67 14H66C62.8303 14.0414 59.8021 15.319 57.5605 17.5605C55.319 19.8021 54.0414 22.8303 54 26V28C54 35 59 37 59 37M73.01 41.27V46M61.01 41.18V46L57.84 46.35M73 46L78.61 46.61C83.44 47.3 87 51.12 87 55.61V58.93C86.9766 59.6144 86.7134 60.2688 86.2564 60.7788C85.7994 61.2887 85.1777 61.6219 84.5 61.72L76.3 63.17C71.406 64.0413 66.4137 64.2197 61.47 63.7M79.01 58V62.7" stroke="#00008F" stroke-width="2" stroke-linecap="round" stroke-linejoin="round"/>
<path d="M73 46L68.71 53.14C68.5323 53.4362 68.281 53.6813 67.9804 53.8514C67.6799 54.0216 67.3404 54.111 66.995 54.111C66.6496 54.111 66.3101 54.0216 66.0096 53.8514C65.709 53.6813 65.4577 53.4362 65.28 53.14L61 46M43 64V68L38.12 69C36.1998 69.2246 34.4244 70.1318 33.1173 71.5563C31.8103 72.9808 31.0589 74.8276 31 76.76V79.63C31.0254 80.2091 31.2504 80.7615 31.6368 81.1935C32.0233 81.6255 32.5473 81.9105 33.12 82L40.12 83.25C45.3505 84.2001 50.7095 84.2001 55.94 83.25L62.94 82C63.5017 81.8981 64.0119 81.6078 64.3864 81.1769C64.7609 80.7461 64.9773 80.2004 65 79.63V76.76C64.9411 74.8276 64.1897 72.9808 62.8827 71.5563C61.5756 70.1318 59.8002 69.2246 57.88 69L53 68V64M38 79V82.92M58 79V82.92M50 52H45C44.2274 52.0197 43.4686 52.209 42.7773 52.5547C42.0861 52.9003 41.4793 53.3937 41 54V58C41 62 43.55 66 48 66C52.45 66 55 62 55 58V50C53.6308 51.2506 51.854 51.9614 50 52Z" stroke="#00008F" stroke-width="2" stroke-linecap="round" stroke-linejoin="round"/>
<path d="M40.12 68.51C38.19 67.89 35.28 66.51 34 64C34.8682 63.4726 35.595 62.7417 36.1177 61.8706C36.6404 60.9995 36.9432 60.0143 37 59V52C37 49.3478 38.0536 46.8043 39.9289 44.9289C41.8043 43.0536 44.3478 42 47 42H48C52 42 54.35 43.18 56 46C56.4068 45.9457 56.8206 45.9858 57.2094 46.1174C57.5981 46.2489 57.9513 46.4683 58.2415 46.7585C58.5317 47.0487 58.7511 47.4019 58.8826 47.7906C59.0142 48.1794 59.0543 48.5932 59 49V59C59.0568 60.0143 59.3596 60.9995 59.8823 61.8706C60.405 62.7417 61.1318 63.4726 62 64C60.72 66.55 57.81 67.89 55.88 68.51M40.22 68.54L42 73C44.13 77.48 51.87 77.48 54 73L55.78 68.55" stroke="#00008F" stroke-width="2" stroke-linecap="round" stroke-linejoin="round"/>
</svg>

<svg width="96" height="96" viewBox="0 0 96 96" fill="none" xmlns="http://www.w3.org/2000/svg"><path d="M37 27a5.33 5.33 0 01-5-3c-1.34 2.75-2.93 5-7 5h-4v6c0 4.67 2.81 9 8 9 5.19 0 8-4.33 8-9v-8z" stroke="#00008F" stroke-width="2" stroke-linecap="round" stroke-linejoin="round"/><path d="M37 37s5-2 5-9v-2c0-3 0-7-4-7-1.87-3.12-4-5-9-5h-1a12.16 12.16 0 00-12 12v2c0 7 5 9 5 9m2 4.27V46l-5.62.61a9.38 9.38 0 00-8.38 9v3.32a2.92 2.92 0 002.5 2.79l8.2 1.45a53.143 53.143 0 0014.63.55M35 41.18V46l3.63.4M17 58v4.7" stroke="#00008F" stroke-width="2" stroke-linecap="round" stroke-linejoin="round"/><path d="M23 46l4.29 7.14a2 2 0 003.42 0L35 46m40-19a5.33 5.33 0 01-5-3c-1.34 2.75-2.93 5-7 5h-4v6c0 4.67 2.81 9 8 9 5.19 0 8-4.33 8-9v-8z" stroke="#00008F" stroke-width="2" stroke-linecap="round" stroke-linejoin="round"/><path d="M75 37s5-2 5-9v-2c0-3 0-7-4-7-1.87-3.12-4-5-9-5h-1a12.16 12.16 0 00-12 12v2c0 7 5 9 5 9m14.01 4.27V46m-12-4.82V46l-3.17.35M73 46l5.61.61c4.83.69 8.39 4.51 8.39 9v3.32a2.92 2.92 0 01-2.5 2.79l-8.2 1.45a52.997 52.997 0 01-14.83.53M79.01 58v4.7" stroke="#00008F" stroke-width="2" stroke-linecap="round" stroke-linejoin="round"/><path d="M73 46l-4.29 7.14a1.999 1.999 0 01-3.43 0L61 46M43 64v4l-4.88 1A8.06 8.06 0 0031 76.76v2.87A2.51 2.51 0 0033.12 82l7 1.25c5.23.95 10.59.95 15.82 0l7-1.25A2.51 2.51 0 0065 79.63v-2.87A8.06 8.06 0 0057.88 69L53 68v-4M38 79v3.92M58 79v3.92M50 52h-5a5.27 5.27 0 00-4 2v4c0 4 2.55 8 7 8s7-4 7-8v-8a7.65 7.65 0 01-5 2z" stroke="#00008F" stroke-width="2" stroke-linecap="round" stroke-linejoin="round"/><path d="M40.12 68.51c-1.93-.62-4.84-2-6.12-4.51a6.26 6.26 0 003-5v-7a10 10 0 0110-10h1c4 0 6.35 1.18 8 4a2.67 2.67 0 013 3v10a6.26 6.26 0 003 5c-1.28 2.55-4.19 3.89-6.12 4.51m-15.66.03L42 73c2.13 4.48 9.87 4.48 12 0l1.78-4.45" stroke="#00008F" stroke-width="2" stroke-linecap="round" stroke-linejoin="round"/></svg>
